flaticon/pins-and-locations/pin-10.svg

<svg xmlns="http://www.w3.org/2000/svg" width="32" height="32" viewBox="0 0 24 24">
    <path d="M 18.398438 6.398438 C 18.398438 2.878906 15.519531 0 12 0 C 8.480469 0 5.601562 2.878906 5.601562 6.398438 C 5.601562 9.242188 7.480469 11.667969 10.058594 12.496094 L 10.800781 22.839844 C 10.839844 23.519531 11.359375 24 12 24 C 12.640625 24 13.160156 23.519531 13.199219 22.839844 L 13.984375 12.484375 C 16.539062 11.640625 18.398438 9.226562 18.398438 6.398438 Z M 12.398438 22.800781 C 12.398438 23.039062 12.238281 23.238281 12 23.238281 C 11.761719 23.238281 11.601562 23 11.601562 22.800781 L 10.878906 12.71875 C 11.679688 12.839844 12.441406 12.839844 13.121094 12.71875 Z M 12 12 C 8.921875 12 6.398438 9.480469 6.398438 6.398438 C 6.398438 3.320312 8.921875 0.800781 12 0.800781 C 15.078125 0.800781 17.601562 3.320312 17.601562 6.398438 C 17.601562 9.480469 15.078125 12 12 12 Z M 12 12"/>
    <path d="M 12.574219 6.8125 C 12.960938 6.386719 13.199219 5.820312 13.199219 5.199219 C 13.199219 3.878906 12.121094 2.800781 10.800781 2.800781 C 9.480469 2.800781 8.398438 3.878906 8.398438 5.199219 C 8.398438 6.519531 9.480469 7.601562 10.800781 7.601562 C 11.214844 7.601562 11.605469 7.492188 11.945312 7.304688 L 14.519531 9.878906 C 14.601562 9.960938 14.679688 10 14.800781 10 C 14.921875 10 15 9.960938 15.078125 9.878906 C 15.238281 9.71875 15.238281 9.480469 15.078125 9.320312 Z M 9.199219 5.199219 C 9.199219 4.320312 9.921875 3.601562 10.800781 3.601562 C 11.679688 3.601562 12.398438 4.320312 12.398438 5.199219 C 12.398438 6.078125 11.679688 6.800781 10.800781 6.800781 C 9.921875 6.800781 9.199219 6.078125 9.199219 5.199219 Z M 9.199219 5.199219"/>
</svg>

<svg xmlns="http://www.w3.org/2000/svg" width="32" height="32" viewBox="0 0 24 24">
    <path d="M18.398 6.398C18.398 2.878 15.52 0 12 0 8.48 0 5.602 2.879 5.602 6.398c0 2.844 1.878 5.27 4.457 6.098L10.8 22.84c.039.68.558 1.16 1.199 1.16.64 0 1.16-.48 1.2-1.16l.784-10.356c2.555-.843 4.414-3.257 4.414-6.086zm-6 16.403c0 .238-.16.437-.398.437-.238 0-.398-.238-.398-.437l-.723-10.082c.8.12 1.562.12 2.242 0zM12 12c-3.078 0-5.602-2.52-5.602-5.602C6.398 3.32 8.922.801 12 .801c3.078 0 5.602 2.52 5.602 5.597C17.602 9.48 15.078 12 12 12zm0 0"/>
    <path d="M12.574 6.813c.387-.426.625-.993.625-1.614a2.404 2.404 0 0 0-2.398-2.398 2.407 2.407 0 0 0-2.403 2.398 2.41 2.41 0 0 0 2.403 2.403c.414 0 .804-.11 1.144-.297l2.575 2.574c.082.082.16.121.28.121.122 0 .2-.04.278-.121a.385.385 0 0 0 0-.559zM9.2 5.199c0-.879.723-1.597 1.602-1.597.879 0 1.597.718 1.597 1.597 0 .88-.718 1.602-1.597 1.602a1.609 1.609 0 0 1-1.602-1.602zm0 0"/>
</svg>
